; generated by PrusaSlicer 2.3.0-rc2+win64 on 2021-03-17 at 01:48:05 UTC

; 

; external perimeters extrusion width = 0.45mm
; perimeters extrusion width = 0.45mm
; infill extrusion width = 0.45mm
; solid infill extrusion width = 0.45mm
; top infill extrusion width = 0.40mm
; first layer extrusion width = 0.42mm

; external perimeters extrusion width = 0.45mm
; perimeters extrusion width = 0.45mm
; infill extrusion width = 0.45mm
; solid infill extrusion width = 0.45mm
; top infill extrusion width = 0.40mm
; first layer extrusion width = 0.42mm

M73 P0 R24
M73 Q0 S24
M201 X9000 Y9000 Z500 E10000 ; sets maximum accelerations, mm/sec^2
M203 X500 Y500 Z12 E120 ; sets maximum feedrates, mm/sec
M204 P1500 R1500 T1500 ; sets acceleration (P, T) and retract acceleration (R), mm/sec^2
M205 X10.00 Y10.00 Z0.20 E2.50 ; sets the jerk limits, mm/sec
M205 S0 T0 ; sets the minimum extruding and travel feed rate, mm/sec
M107
M190 S60 ; set bed temperature and wait for it to be reached
M104 S200 ; set temperature
;TYPE:Custom
G28 ; home all axes
G1 Z5 F5000 ; lift nozzle
M109 S200 ; set temperature and wait for it to be reached
G21 ; set units to millimeters
G90 ; use absolute coordinates
M83 ; use relative distances for extrusion
G1 Z0.100 F7800.000
;HEIGHT:0.100000
;TYPE:Wipe tower
;WIDTH:0.500000
;--------------------
; CP PRIMING START
;--------------------
M220 B
M220 S100
G1  X4.400 Y20.260   F7200

T1

G1  X4.400 Y20.260  
; Filament gcode

G4 S0
; CP TOOLCHANGE LOAD
G1 E4.8000 F1140
M73 P2 R23
M73 Q2 S24
G1  X64.025  E16.8000 F2981
G1  X4.400  E2.4000 F2087
G1
; CP TOOLCHANGE WIPE
G1  X64.400  E1.4086 F800
M73 P3 R23
M73 Q3 S23
G1  X63.650 Y20.760   E0.0212
G1  X4.400  E1.3910 F900
G1  X5.150 Y21.260   E0.0212
G1  X63.650  E1.3734 F1100
G1  Y21.760  E0.0117
G1  X5.150  E1.3734 F2100
G1  Y22.260  E0.0117
G1  X64.400  E1.3910 F2125
G1  X63.650 Y22.760   E0.0212
G1  X4.400  E1.3910 F2150
G1  X5.150 Y23.260   E0.0212
G1  X63.650  E1.3734 F2175
M73 P4 R23
M73 Q4 S23
G1  Y23.760  E0.0117
G1  X5.150  E1.3734 F2200
G1  X63.650  F7200
; CP TOOLCHANGE UNLOAD
;WIDTH:0.600000
G1  X4.900 Y24.560  
M900 K0
G1 F4405
G1  X23.254  E0.4415
G1 F4433
G1  X41.723  E0.4443
G1 F4628
G1  X61.006  E0.4638
G1 F4962
G1  X63.900  E0.0696
G1  Y25.160  F7200
G1 F4962
G1  X46.117  E0.4277
G1 F5158
G1  X24.627  E0.5169
G1 F5213
G1  X4.900  E0.4745
G1  Y25.760  F7200
G1 F5213
G1  X6.895  E0.0480
G1 F5381
G1  X29.315  E0.5392
G1 F5966
G1  X54.173  E0.5979
G1 F7249
G1  X63.900  E0.2340
G1  Y26.360  F7200
G1 F7249
G1  X43.425  E0.4925
G1 F8949
G1  X6.137  E0.8969
G1 F10259
G1  X4.900  E0.0297
G1  Y26.960  F7200
G1 F10259
G1  X46.411  E0.9985
G1 F10427
G1  X63.900  E0.4207
G1  Y27.560  F7200
G1 F10427
G1  X37.944  E0.6243
G1 F9061
G1  X4.900  E0.7948
G1  Y28.160  F7200
G1 F9061
G1  X9.608  E0.1132
G1 F7165
G1  X39.462  E0.7181
;WIDTH:0.500000
G1 E-15.0000 F6000
G1 E-8.7500 F1200
G1 E-2.5000 F600
G1 E-1.2500 F360
M104 S200
G1  Y28.760 
G1  X4.900  E5.0000 F1244
G1  X39.462  E-5.0000 F829
G1 E-2.5000 F2000
G1  Y28.710  F2400
G4 S0
G1  X64.400 Y20.260   F7200

;HEIGHT:0.100000
;TYPE:Wipe tower
;WIDTH:0.500000
; Filament-specific end gcode 
;END gcode for filament

T0

G1  X64.400 Y20.260  
; Filament gcode

G4 S0
; CP TOOLCHANGE LOAD
G1 E4.8000 F1140
M73 P5 R23
G1  X124.025  E16.8000 F2981
M73 Q5 S23
G1  X64.400  E2.4000 F2087
; CP TOOLCHANGE WIPE
G1  X124.400  E1.4086 F800
G1  X123.650 Y20.760   E0.0212
G1  X64.400  E1.3910 F900
G1  X65.150 Y21.260   E0.0212
G1  X123.650  E1.3734 F1100
M73 P6 R22
M73 Q6 S23
G1  Y21.760  E0.0117
G1  X65.150  E1.3734 F2100
G1  Y22.260  E0.0117
G1  X124.400  E1.3910 F2125
G1  X123.650 Y22.760   E0.0212
G1  X64.400  E1.3910 F2150
G1  X65.150 Y23.260   E0.0212
G1  X123.650  E1.3734 F2175
G1  Y23.760  E0.0117
G1  X65.150  E1.3734 F2200
G1  Y24.260  E0.0117
G1  X124.400  E1.3910 F2225
G1  X123.650 Y24.760   E0.0212
G1  X64.400  E1.3910 F2250
G1  X65.150 Y25.260   E0.0212
G1  X123.650  E1.3734 F2275
G1  Y25.760  E0.0117
G1  X65.150  E1.3734 F2300
M73 P7 R22
M73 Q7 S23
G1  Y26.260  E0.0117
G1  X124.400  E1.3910 F2325
M73 Q7 S22
G1  X123.650 Y26.760   E0.0212
G1  X64.400  E1.3910 F2350
G1  X65.150 Y27.260   E0.0212
G1  X123.650  E1.3734 F2375
G1  Y27.760  E0.0117
G1  X65.150  E1.3734 F2400
G1  Y28.260  E0.0117
G1  X124.400  E1.3910
G1  X123.650 Y28.760   E0.0212
G1  X64.400  E1.3910
G1  X65.150 Y29.260   E0.0212
G1  X123.650  E1.3734
G1  Y29.760  E0.0117
G1  X65.150  E1.3734
G1  Y30.260  E0.0117
G1  X124.400  E1.3910
M73 P8 R22
G1  X123.650 Y30.760   E0.0212
G1  X64.400  E1.3910
M73 Q8 S22
G1  X65.150 Y31.260   E0.0212
G1  X123.650  E1.3734
G1  Y31.760  E0.0117
G1  X65.150  E1.3734
G1  Y32.260  E0.0117
G1  X124.400  E1.3910
G1  X123.650 Y32.760   E0.0212
G1  X64.400  E1.3910
G1  X65.150 Y33.260   E0.0212
G1  X123.650  E1.3734
G1  Y33.760  E0.0117
G1  X65.150  E1.3734
G1  Y34.260  E0.0117
G1  X124.400  E1.3910
G1  X123.650 Y34.760   E0.0212
G1  X64.400  E1.3910
G1  X65.150 Y35.260   E0.0212
G1  X123.650  E1.3734
M73 P9 R22
M73 Q9 S22
G1  Y35.760  E0.0117
G1  X65.150  E1.3734
G1  Y36.260  E0.0117
G1  X124.400  E1.3910
G1  X123.650 Y36.760   E0.0212
G1  X64.400  E1.3910
G1  X65.150 Y37.260   E0.0212
G1  X123.650  E1.3734
G1  Y37.760  E0.0117
G1  X65.150  E1.3734
G1  Y38.260  E0.0117
G1  X124.400  E1.3910
G1  X123.650 Y38.760   E0.0212
G1  X64.400  E1.3910
G1  X65.150 Y39.260   E0.0212
G1  X123.650  E1.3734
G1  Y39.760  E0.0117
G1  X65.150  E1.3734
M73 P10 R22
G1  Y40.260  E0.0117
G1  X124.400  E1.3910
M73 P10 R21
M73 Q10 S22
G1  X123.650 Y40.760   E0.0212
G1  X64.400  E1.3910
G1  X65.150 Y41.260   E0.0212
G1  X123.650  E1.3734
G1  Y41.760  E0.0117
G1  X65.150  E1.3734
G1  Y42.260  E0.0117
G1  X124.400  E1.3910
G1  X123.650 Y42.760   E0.0212
G1  X64.400  E1.3910
G1  X65.150 Y43.260   E0.0212
G1  X123.650  E1.3734
G1  Y43.760  E0.0117
G1  X65.150  E1.3734
G1  Y44.260  E0.0117
G1  X124.400  E1.3910
G1  X123.650 Y44.760   E0.0212
G1  X64.400  E1.3910
M73 P11 R21
M73 Q11 S22
G1  X123.650  F7200
M220 R
G1 F6000
G4 S0
G92 E0
; CP PRIMING END
;------------------



G1 E-5.00000 F2400.000
G1 Z0.300 F7800.000
M300 S800 P500
M1 S10
;LAYER_CHANGE
;Z:0.1
;HEIGHT:0.1
G91 ; relative movements
G1 Z1 ; Z up 1mm
G90 ; back to absolute
M240
G91 ; relative movements
G1 Z-1 ; Z up 1mm
G90 ; back to absolute
G1 Z0.100 F7800.000
G1 E-1.00000 F2400.000
G1 Z0.300 F7800.000
G1 X80.937 Y67.743
G1 Z0.100
G1 E6.00000 F2400.000
;HEIGHT:0.100000
;TYPE:Wipe tower
;WIDTH:0.500000
;-------------------------------------
; CP WIPE TOWER FIRST LAYER BRIM START
G1  X80.937 Y110.343  E1.2713
M73 Q11 S21
G1  X78.416 Y110.822   F7000
G1  Y67.264  E0.9532 F2100
G1  X37.458  E0.8963
G1  Y110.822  E0.9532
G1  X78.416  E0.8963
G1  X78.894 Y111.300   F7000
G1  Y66.786  E0.9742 F2100
G1  X36.980  E0.9173
G1  Y111.300  E0.9742
G1  X78.894  E0.9173
G1  X79.373 Y111.779   F7000
G1  Y66.307  E0.9951 F2100
M73 P12 R21
M73 Q12 S21
G1  X36.501  E0.9382
G1  Y111.779  E0.9951
G1  X79.373  E0.9382
G1  X79.851 Y112.257   F7000
G1  Y65.829  E1.0161 F2100
G1  X36.023  E0.9592
G1  Y112.257  E1.0161
G1  X79.851  E0.9592
; CP WIPE TOWER FIRST LAYER BRIM END
;-----------------------------------

G1 E-3.50000 F2400.000
;WIPE_START
G1 F6240.000
G1 X79.373 Y111.778 E-0.24728
G1 X76.150 Y111.778 E-1.17772
;WIPE_END
G1 E-0.07500 F2400.000
G1 Z0.300 F7800.000
G1 X31.316 Y116.076
G1 Z0.100
G1 E5.00000 F2400.000
;TYPE:Skirt
;WIDTH:0.42
;HEIGHT:0.1
G1 F1800.000
G1 X30.484 Y114.765 E0.02572
G1 X30.029 Y113.464 E0.02284
G1 X29.864 Y112.096 E0.02284
G1 X29.865 Y65.949 E0.76462
G1 X29.985 Y64.826 E0.01872
G1 X30.304 Y63.735 E0.01882
G1 X30.810 Y62.719 E0.01882
G1 X31.488 Y61.807 E0.01882
G1 X32.426 Y60.947 E0.02109
G1 X33.521 Y60.286 E0.02119
G1 X34.720 Y59.858 E0.02109
G1 X35.979 Y59.675 E0.02109
G1 X79.618 Y59.669 E0.72307
M73 P13 R21
G1 X81.025 Y59.827 E0.02346
G1 X82.357 Y60.288 E0.02335
G1 X83.561 Y61.033 E0.02346
G1 X84.567 Y62.020 E0.02335
G1 X130.077 Y121.106 E1.23575
M73 Q13 S21
G1 X130.777 Y122.249 E0.02222
G1 X131.228 Y123.532 E0.02253
G1 X131.397 Y124.882 E0.02253
G1 X131.379 Y155.499 E0.50732
G1 X131.259 Y156.328 E0.01387
G1 X131.033 Y157.133 E0.01387
G1 X130.703 Y157.902 E0.01387
G1 X130.275 Y158.621 E0.01387
G1 X129.757 Y159.279 E0.01387
G1 X129.158 Y159.863 E0.01387
G1 X128.488 Y160.364 E0.01387
G1 X127.753 Y160.776 E0.01397
G1 X126.409 Y161.242 E0.02356
G1 X125.000 Y161.399 E0.02349
G1 X94.881 Y161.397 E0.49905
G1 X93.544 Y161.231 E0.02232
G1 X92.266 Y160.785 E0.02243
G1 X91.231 Y160.170 E0.01995
G1 X32.438 Y117.148 E1.20712
G1 X31.359 Y116.117 E0.02473
G1 E-3.50000 F2400.000
;WIPE_START
G1 F6240.000
G1 X30.484 Y114.765 E-0.58847
G1 X30.029 Y113.464 E-0.50365
G1 X29.920 Y112.560 E-0.33288
;WIPE_END
G1 E-0.07500 F2400.000
G1 Z0.300 F7800.000
G1 X96.207 Y127.631
G1 Z0.100
G1 E5.00000 F2400.000
;TYPE:Perimeter
G1 F1800.000
G1 X122.369 Y153.793 E0.61304
G1 X96.207 Y153.793 E0.43348
G1 X96.207 Y127.691 E0.43249
G1 E-3.50000 F2400.000
;WIPE_START
G1 F6240.000
G1 X98.968 Y130.446 E-1.42500
;WIPE_END
G1 E-0.07500 F2400.000
G1 Z0.300 F7800.000
G1 X95.809 Y126.669
G1 Z0.100
G1 E5.00000 F2400.000
G1 F1800.000
G1 X123.331 Y154.191 E0.64492
G1 X95.809 Y154.191 E0.45603
M73 P14 R21
G1 X95.809 Y126.729 E0.45503
M73 Q14 S21
G1 E-3.50000 F2400.000
;WIPE_START
G1 F6240.000
G1 X98.569 Y129.484 E-1.42500
;WIPE_END
G1 E-0.07500 F2400.000
G1 Z0.300 F7800.000
G1 X95.410 Y125.707
G1 Z0.100
G1 E5.00000 F2400.000
;TYPE:External perimeter
G1 F1800.000
G1 X124.293 Y154.590 E0.67680
G1 X95.410 Y154.590 E0.47857
M73 P14 R20
G1 X95.410 Y125.767 E0.47758
G1 X95.024 Y125.811 F7800.000
G1 E-3.50000 F2400.000
;WIPE_START
G1 F6240.000
G1 X98.171 Y128.522 E-1.42500
;WIPE_END
G1 E-0.07500 F2400.000
G1 Z0.300 F7800.000
G1 X121.821 Y153.673
G1 Z0.100
G1 E5.00000 F2400.000
;TYPE:Solid infill
;WIDTH:0.427205
G1 F1800.000
G1 X96.506 Y128.358 E0.60393
G1 X96.506 Y128.932 E0.00968
G1 X121.068 Y153.494 E0.58596
G1 X120.494 Y153.494 E0.00968
G1 X96.506 Y129.506 E0.57227
G1 X96.506 Y130.079 E0.00968
G1 X119.920 Y153.494 E0.55858
G1 X119.347 Y153.494 E0.00968
G1 X96.506 Y130.653 E0.54489
G1 X96.506 Y131.227 E0.00968
G1 X118.773 Y153.494 E0.53121
G1 X118.199 Y153.494 E0.00968
G1 X96.506 Y131.801 E0.51752
G1 X96.506 Y132.375 E0.00968
G1 X117.625 Y153.494 E0.50383
M73 P15 R20
G1 X117.051 Y153.494 E0.00968
G1 X96.506 Y132.949 E0.49014
M73 Q15 S21
G1 X96.506 Y133.522 E0.00968
G1 X116.478 Y153.494 E0.47645
G1 X115.904 Y153.494 E0.00968
G1 X96.506 Y134.096 E0.46276
G1 X96.506 Y134.670 E0.00968
G1 X115.330 Y153.494 E0.44907
G1 X114.756 Y153.494 E0.00968
G1 X96.506 Y135.244 E0.43538
G1 X96.506 Y135.818 E0.00968
G1 X114.182 Y153.494 E0.42169
M73 Q15 S20
G1 X113.609 Y153.494 E0.00968
G1 X96.506 Y136.391 E0.40800
G1 X96.506 Y136.965 E0.00968
G1 X113.035 Y153.494 E0.39432
G1 X112.461 Y153.494 E0.00968
G1 X96.506 Y137.539 E0.38063
G1 X96.506 Y138.113 E0.00968
G1 X111.887 Y153.494 E0.36694
G1 X111.313 Y153.494 E0.00968
G1 X96.506 Y138.687 E0.35325
G1 X96.506 Y139.260 E0.00968
G1 X110.740 Y153.494 E0.33956
G1 X110.166 Y153.494 E0.00968
G1 X96.506 Y139.834 E0.32587
G1 X96.506 Y140.408 E0.00968
G1 X109.592 Y153.494 E0.31218
G1 X109.018 Y153.494 E0.00968
G1 X96.506 Y140.982 E0.29849
G1 X96.506 Y141.556 E0.00968
G1 X108.444 Y153.494 E0.28480
G1 X107.870 Y153.494 E0.00968
G1 X96.506 Y142.129 E0.27111
G1 X96.506 Y142.703 E0.00968
G1 X107.297 Y153.494 E0.25743
M73 P16 R20
G1 X106.723 Y153.494 E0.00968
G1 X96.506 Y143.277 E0.24374
G1 X96.506 Y143.851 E0.00968
G1 X106.149 Y153.494 E0.23005
M73 Q16 S20
G1 X105.575 Y153.494 E0.00968
G1 X96.506 Y144.425 E0.21636
G1 X96.506 Y144.999 E0.00968
G1 X105.001 Y153.494 E0.20267
G1 X104.428 Y153.494 E0.00968
G1 X96.506 Y145.572 E0.18898
G1 X96.506 Y146.146 E0.00968
G1 X103.854 Y153.494 E0.17529
G1 X103.280 Y153.494 E0.00968
G1 X96.506 Y146.720 E0.16160
G1 X96.506 Y147.294 E0.00968
G1 X102.706 Y153.494 E0.14791
G1 X102.132 Y153.494 E0.00968
G1 X96.506 Y147.868 E0.13423
G1 X96.506 Y148.441 E0.00968
G1 X101.559 Y153.494 E0.12054
G1 X100.985 Y153.494 E0.00968
G1 X96.506 Y149.015 E0.10685
G1 X96.506 Y149.589 E0.00968
G1 X100.411 Y153.494 E0.09316
G1 X99.837 Y153.494 E0.00968
G1 X96.506 Y150.163 E0.07947
G1 X96.506 Y150.737 E0.00968
G1 X99.263 Y153.494 E0.06578
M73 P18 R20
M73 Q17 S20
G1 X98.690 Y153.494 E0.00968
G1 X96.506 Y151.310 E0.05209
G1 X96.506 Y151.884 E0.00968
G1 X98.116 Y153.494 E0.03840
G1 X97.542 Y153.494 E0.00968
G1 X96.506 Y152.458 E0.02471
G1 X96.506 Y153.032 E0.00968
G1 X97.147 Y153.673 E0.01530
G1 E-4.20000 F2400.000
;WIPE_START
G1 F6240.000
G1 X96.506 Y153.032 E-0.33147
G1 X96.506 Y152.458 E-0.20966
G1 X97.542 Y153.494 E-0.53531
G1 X98.116 Y153.494 E-0.20966
G1 X97.295 Y152.674 E-0.42390
;WIPE_END
G1 E-0.09000 F2400.000
G1 Z0.300 F7800.000
G1 X77.687 Y110.093
M73 Q18 S20
G1 Z0.100
G1 E6.00000 F2400.000
;HEIGHT:0.100000
;TYPE:Wipe tower
;WIDTH:0.500000
;--------------------
; CP TOOLCHANGE START
; toolchange #1
; material : PLA -> PLA
;--------------------
M220 B
M220 S100
; CP TOOLCHANGE UNLOAD
;WIDTH:0.600000
G1  X77.187 Y109.793  
M900 K0
G1 F4405
G1  X58.833  E0.4415
G1 F4433
G1  X40.364  E0.4443
G1 F4628
G1  X38.687  E0.0403
G1  Y109.193  F7200
G1 F4628
G1  X56.293  E0.4235
G1 F4962
G1  X76.970  E0.4973
G1 F5158
G1  X77.187  E0.0052
G1  Y108.593  F7200
G1 F5158
G1  X55.914  E0.5117
G1 F5213
G1  X38.687  E0.4144
G1  Y107.993  F7200
G1 F5213
G1  X43.182  E0.1081
G1 F5381
G1  X65.602  E0.5392
G1 F5966
G1  X77.187  E0.2787
G1  Y107.393  F7200
G1 F5966
G1  X63.914  E0.3193
G1 F7249
G1  X38.687  E0.6068
G1  Y106.793  F7200
G1 F7249
G1  X43.662  E0.1197
G1 F8949
G1  X77.187  E0.8064
G1  Y106.193  F7200
G1 F8949
G1  X73.424  E0.0905
G1 F10259
G1  X38.687  E0.8355
G1  Y105.593  F7200
G1 F10259
G1  X46.698  E0.1927
G1 F10427
G1  X77.187  E0.7334
G1  Y104.993  F7200
G1 F10427
G1  X64.231  E0.3116
G1 F9061
G1  X38.687  E0.6144
G1  Y104.393  F7200
G1 F9061
G1  X50.895  E0.2936
G1 F7165
G1  X77.187  E0.6324
M73 P18 R19
G1  Y103.793  F7200
G1 F7165
G1  X73.625  E0.0857
;WIDTH:0.500000
G1 E-15.0000 F6000
G1 E-8.7500 F1200
G1 E-2.5000 F600
G1 E-1.2500 F360
M104 S200
G1  Y103.193 
G1  X38.687  E5.0000 F1258
G1  X73.625  E-5.0000 F839
G1 E-2.5000 F2000
G1  Y103.243  F2400
G4 S0
; Filament-specific end gcode 
;END gcode for filament

T1

G1  X73.625 Y103.243  
; Filament gcode

G4 S0
; CP TOOLCHANGE LOAD
G1 E4.8000 F1140
G1  X38.562  E16.8000 F1753
G1  X73.625  E2.4000 F1227
M73 P19 R19
G1  Y103.743 
; CP TOOLCHANGE WIPE
G1  X38.187  E0.8320 F800
M73 Q19 S20
G1  X38.937 Y103.243   E0.0212
G1  X77.687  E0.9097 F900
G1  X76.937 Y102.743   E0.0212
G1  X38.937  E0.8921 F1100
M73 Q19 S19
G1  Y102.243  E0.0117
G1  X76.937  E0.8921 F2100
G1  Y101.743  E0.0117
G1  X38.187  E0.9097 F2125
G1  X38.937 Y101.243   E0.0212
G1  X77.687  E0.9097 F2150
G1  X76.937 Y100.743   E0.0212
G1  X38.937  E0.8921 F2175
G1  Y100.243  E0.0117
G1  X76.937  E0.8921 F2200
G1  Y99.743  E0.0117
G1  X38.187  E0.9097 F2225
M73 P20 R19
G1  X38.937 Y99.243   E0.0212
G1  X77.687  E0.9097 F2250
M73 Q20 S19
G1  X76.937 Y98.743   E0.0212
G1  X38.937  E0.8921 F2275
G1  Y98.243  E0.0117
G1  X76.937  E0.8921 F2300
G1  Y97.743  E0.0117
G1  X38.187  E0.9097 F2325
G1  X38.937 Y97.243   E0.0212
G1  X77.687  E0.9097 F2350
G1  X76.937 Y96.743   E0.0212
G1  X38.937  E0.8921 F2375
G1  Y96.243  E0.0117
G1  X76.937  E0.8921 F2400
G1  Y95.743  E0.0117
G1  X38.187  E0.9097
G1  X38.937 Y95.243   E0.0212
G1  X77.687  E0.9097
G1  X76.937 Y94.743   E0.0212
G1  X38.937  E0.8921
G1  Y94.243  E0.0117
G1  X76.937  E0.8921
G1  Y93.743  E0.0117
G1  X38.187  E0.9097
G1  X38.937 Y93.243   E0.0212
G1  X77.687  E0.9097
G1  X76.937 Y92.743   E0.0212
G1  X38.937  E0.8921
M73 P21 R19
G1  Y92.243  E0.0117
G1  X76.937  E0.8921
M73 Q21 S19
G1  Y91.743  E0.0117
G1  X38.187  E0.9097
G1  X38.937 Y91.243   E0.0212
G1  X77.687  E0.9097
G1  X76.937 Y90.743   E0.0212
G1  X38.937  E0.8921
G1  Y90.243  E0.0117
G1  X76.937  E0.8921
G1  Y89.743  E0.0117
G1  X38.187  E0.9097
G1  X38.937 Y89.243   E0.0212
G1  X77.687  E0.9097
G1  X76.937 Y88.743   E0.0212
G1  X38.937  E0.8921
G1  Y88.243  E0.0117
